_inc/systems/system/supergrafx.svg

<?xml version="1.0" encoding="UTF-8" standalone="no"?>
<svg
   version="1.2"
   viewBox="0 0 264 130"
   id="svg11"
   sodipodi:docname="supergrafx.svg"
   inkscape:version="1.3.2 (091e20e, 2023-11-25, custom)"
   xmlns:inkscape="http://www.inkscape.org/namespaces/inkscape"
   xmlns:sodipodi="http://sodipodi.sourceforge.net/DTD/sodipodi-0.dtd"
   xmlns="http://www.w3.org/2000/svg"
   xmlns:svg="http://www.w3.org/2000/svg">
  <defs
     id="defs11" />
  <sodipodi:namedview
     id="namedview11"
     pagecolor="#505050"
     bordercolor="#eeeeee"
     borderopacity="1"
     inkscape:showpageshadow="0"
     inkscape:pageopacity="0"
     inkscape:pagecheckerboard="0"
     inkscape:deskcolor="#505050"
     inkscape:zoom="1.7001365"
     inkscape:cx="-113.2262"
     inkscape:cy="-302.32867"
     inkscape:window-width="3840"
     inkscape:window-height="2126"
     inkscape:window-x="-11"
     inkscape:window-y="-11"
     inkscape:window-maximized="1"
     inkscape:current-layer="svg11" />
  <g
     transform="matrix(0.352,0,0,0.35432,23.409885,4.8231422)"
     id="g11"
     style="stroke-width:1.25">
    <polygon
       points="44.445,37.038 74.073,37.038 74.073,66.669 114.813,66.669 114.813,29.631 85.185,0 25.926,0 0,29.631 0,92.595 29.628,122.223 55.554,122.223 55.554,81.483 44.445,81.483 "
       style="fill:#ffffff;stroke-width:1.5625"
       id="polygon1"
       transform="matrix(0.8,0,0,0.8,65.502763,54.449562)" />
    <polygon
       points="74.073,166.668 44.445,166.668 44.445,137.037 0,137.037 0,177.78 29.628,207.408 92.592,207.408 118.518,177.78 118.518,111.114 88.89,81.483 62.964,81.483 62.964,122.223 74.073,122.223 "
       style="fill:#ffffff;stroke-width:1.5625"
       id="polygon2"
       transform="matrix(0.8,0,0,0.8,65.502763,54.449562)" />
    <polygon
       points="157.407,207.408 181.482,207.408 181.482,170.373 170.37,170.373 170.37,0 125.925,0 125.925,177.78 "
       style="fill:#ffffff;stroke-width:1.5625"
       id="polygon3"
       transform="matrix(0.8,0,0,0.8,65.502763,54.449562)" />
    <polygon
       points="212.964,207.408 188.889,207.408 188.889,170.373 199.998,170.373 199.998,0 244.443,0 244.443,177.78 "
       style="fill:#ffffff;stroke-width:1.5625"
       id="polygon4"
       transform="matrix(0.8,0,0,0.8,65.502763,54.449562)" />
    <polygon
       points="366.666,31.482 335.184,0 307.407,0 307.407,37.038 322.221,37.038 322.221,100.002 307.407,100.002 307.407,140.742 337.035,140.742 366.666,111.114 "
       style="fill:#ffffff;stroke-width:1.5625"
       id="polygon5"
       transform="matrix(0.8,0,0,0.8,65.502763,54.449562)" />
    <rect
       x="255.55499"
       width="44.445"
       height="207.408"
       style="fill:#ffffff;stroke-width:1.5625"
       id="rect5"
       y="0"
       transform="matrix(0.8,0,0,0.8,65.502763,54.449562)" />
    <polygon
       points="422.22,40.743 470.37,40.743 470.37,0 381.48,0 381.48,207.408 470.37,207.408 470.37,170.373 422.22,170.373 "
       style="fill:#ffffff;stroke-width:1.5625"
       id="polygon6"
       transform="matrix(0.8,0,0,0.8,65.502763,54.449562)" />
    <rect
       x="429.63"
       y="81.483002"
       width="29.631001"
       height="37.037998"
       style="fill:#ffffff;stroke-width:1.5625"
       id="rect6"
       transform="matrix(0.8,0,0,0.8,65.502763,54.449562)" />
    <polygon
       points="559.257,125.928 537.036,125.928 537.036,85.185 555.555,85.185 555.555,37.038 537.036,37.038 537.036,0 570.372,0 600,29.631 600,85.185 579.63,105.555 600,125.928 600,207.408 559.257,207.408 "
       style="fill:#ffffff;stroke-width:1.5625"
       id="polygon7"
       transform="matrix(0.8,0,0,0.8,65.502763,54.449562)" />
    <rect
       x="485.18399"
       width="44.442001"
       height="207.408"
       style="fill:#ffffff;stroke-width:1.5625"
       id="rect7"
       y="0"
       transform="matrix(0.8,0,0,0.8,65.502763,54.449562)" />
    <polygon
       points="148.146,266.67 148.146,281.484 96.297,281.484 96.297,240.741 159.258,240.741 159.258,229.629 88.89,229.629 79.629,238.89 79.629,281.484 91.665,293.52 159.258,293.52 159.258,255.555 122.223,255.555 122.223,266.67 "
       style="fill:#ffffff;stroke-width:1.5625"
       id="polygon8"
       transform="matrix(0.8,0,0,0.8,65.502763,54.449562)" />
    <polygon
       points="255.555,292.593 285.186,229.629 314.814,229.629 348.15,292.593 329.628,292.593 303.705,244.446 296.295,244.446 274.074,292.593 "
       style="fill:#ffffff;stroke-width:1.5625"
       id="polygon9"
       transform="matrix(0.8,0,0,0.8,65.502763,54.449562)" />
    <path
       d="m 248.148,257.409 v -16.668 l -11.109,-11.112 h -62.964 v 62.964 h 14.814 V 266.67 h 25.926 l 18.516,25.923 h 14.817 L 229.629,266.67 h 7.41 z m -14.817,-1.854 h -44.442 v -14.811 h 44.442 z"
       style="fill:#ffffff;stroke-width:1.5625"
       id="path9"
       transform="matrix(0.8,0,0,0.8,65.502763,54.449562)" />
    <polygon
       points="422.22,240.741 422.22,229.629 351.849,229.629 351.849,292.593 366.666,292.593 366.666,266.67 414.813,266.67 414.813,255.555 366.666,255.555 366.666,240.741 "
       style="fill:#ffffff;stroke-width:1.5625"
       id="polygon10"
       transform="matrix(0.8,0,0,0.8,65.502763,54.449562)" />
    <polygon
       points="514.812,229.629 492.591,229.629 470.37,251.853 448.146,229.629 429.63,229.629 459.261,259.26 425.925,292.593 448.146,292.593 470.37,270.369 492.591,292.593 514.812,292.593 481.479,259.26 "
       style="fill:#ffffff;stroke-width:1.5625"
       id="polygon11"
       transform="matrix(0.8,0,0,0.8,65.502763,54.449562)" />
  </g>
</svg>

<?xml version="1.0" encoding="utf-8"?>
<svg version="1.2" viewBox="0 0 264 130" xmlns="http://www.w3.org/2000/svg">
  <g transform="matrix(0.44, 0, 0, 0.4429, 0, 0)">
    <polygon points="85.185 0 25.926 0 0 29.631 0 92.595 29.628 122.223 55.554 122.223 55.554 81.483 44.445 81.483 44.445 37.038 74.073 37.038 74.073 66.669 114.813 66.669 114.813 29.631" style="fill: rgb(255, 255, 255);"/>
    <polygon points="29.628 207.408 92.592 207.408 118.518 177.78 118.518 111.114 88.89 81.483 62.964 81.483 62.964 122.223 74.073 122.223 74.073 166.668 44.445 166.668 44.445 137.037 0 137.037 0 177.78" style="fill: rgb(255, 255, 255);"/>
    <polygon points="125.925 177.78 157.407 207.408 181.482 207.408 181.482 170.373 170.37 170.373 170.37 0 125.925 0" style="fill: rgb(255, 255, 255);"/>
    <polygon points="244.443 177.78 212.964 207.408 188.889 207.408 188.889 170.373 199.998 170.373 199.998 0 244.443 0" style="fill: rgb(255, 255, 255);"/>
    <polygon points="307.407 0 307.407 37.038 322.221 37.038 322.221 100.002 307.407 100.002 307.407 140.742 337.035 140.742 366.666 111.114 366.666 31.482 335.184 0" style="fill: rgb(255, 255, 255);"/>
    <rect x="255.555" width="44.445" height="207.408" style="fill: rgb(255, 255, 255);"/>
    <polygon points="422.22 40.743 470.37 40.743 470.37 0 381.48 0 381.48 207.408 470.37 207.408 470.37 170.373 422.22 170.373" style="fill: rgb(255, 255, 255);"/>
    <rect x="429.63" y="81.483" width="29.631" height="37.038" style="fill: rgb(255, 255, 255);"/>
    <polygon points="537.036 0 570.372 0 600 29.631 600 85.185 579.63 105.555 600 125.928 600 207.408 559.257 207.408 559.257 125.928 537.036 125.928 537.036 85.185 555.555 85.185 555.555 37.038 537.036 37.038" style="fill: rgb(255, 255, 255);"/>
    <rect x="485.184" width="44.442" height="207.408" style="fill: rgb(255, 255, 255);"/>
    <polygon points="88.89 229.629 79.629 238.89 79.629 281.484 91.665 293.52 159.258 293.52 159.258 255.555 122.223 255.555 122.223 266.67 148.146 266.67 148.146 281.484 96.297 281.484 96.297 240.741 159.258 240.741 159.258 229.629" style="fill: rgb(255, 255, 255);"/>
    <polygon points="255.555 292.593 285.186 229.629 314.814 229.629 348.15 292.593 329.628 292.593 303.705 244.446 296.295 244.446 274.074 292.593" style="fill: rgb(255, 255, 255);"/>
    <path d="M 248.148 257.409 L 248.148 240.741 L 237.039 229.629 L 174.075 229.629 L 174.075 292.593 L 188.889 292.593 L 188.889 266.67 L 214.815 266.67 L 233.331 292.593 L 248.148 292.593 L 229.629 266.67 L 237.039 266.67 L 248.148 257.409 Z M 233.331 255.555 L 188.889 255.555 L 188.889 240.744 L 233.331 240.744 L 233.331 255.555 Z" style="fill: rgb(255, 255, 255);"/>
    <polygon points="351.849 229.629 351.849 292.593 366.666 292.593 366.666 266.67 414.813 266.67 414.813 255.555 366.666 255.555 366.666 240.741 422.22 240.741 422.22 229.629" style="fill: rgb(255, 255, 255);"/>
    <polygon points="429.63 229.629 459.261 259.26 425.925 292.593 448.146 292.593 470.37 270.369 492.591 292.593 514.812 292.593 481.479 259.26 514.812 229.629 492.591 229.629 470.37 251.853 448.146 229.629" style="fill: rgb(255, 255, 255);"/>
  </g>
</svg>
